X:1
T:Title
T:(Piano Cover by Cal T) Transcribed by TheRavingPianist 
T:Lighter Than Air- MaRLo & Feenixpawl 
C:Composer
%%score { 1 | 2 }
L:1/8
M:4/4
K:C
V:1 treble nm="Piano" snm="Pno."
V:2 bass 
V:1
 d/c/A/E/ d/c/A/E/ d/c/A/E/ d/c/A/E/ | f/c/A/F/ f/c/A/F/ f/c/A/F/ f/c/A/F/ | %2
 g/c/A/G/ g/c/A/G/ g/c/A/G/ g/c/A/G/ | g/d/B/G/ g/d/B/G/ g/d/B/G/ g/d/B/G/ | Ac d4 z c | %5
 Ac d4 z c | Gc d2 de d2 | !arpeggio![GB]8 | eg e4 z e | fg f4 z f | cc e4 z c | Bc B4 z2 | %12
 cA e4 z e | fg f6 | cc e4 z c | Bc B4 g2 | a3 g e2 g z | a>b c'b g2 e2 | gffe eddc | de e4 g2 | %20
 a3 g e2 g z | a>b c'b g2 eg | gffe eddc | de e2 z2 cB | Ac d4 z c | Ac d4 z c | Gc d2 de d2 | %27
 B2 z z BB c2 | eg e2 de d2 | fg f2!8va(! c'd' c'2 | c'c' c'2 d'e' d'2 | b2 z z bb c'2 | %32
 ac' d'2 z z z c' | ac' d'4 z c' | gc' d'2 d'e' d'2 | b2 z2 z bbc' | ac' d'4 z c' | ac' d'4 z c' | %38
 gc' d'2 d'e' d'2 | b2 z z bb c'2!8va)! | z [ce] z [ce] ecde | z [eg] z [eg] gffe | %42
 z [ce] z [ce] ecde | z [Bd] z [Bd] deBc :| z [ce] z [ce] ecde | z [ca] z!8va(! f' f'e'e'c'!8va)! | %46
 z [ce] z [ce] ecde | z [Bd] z [Bd]!8va(! d'e'bc'!8va)! :| Ac d4 z c | Ac d4 z c | Gc d2 de d2 | %51
 B2 z z BB c2 | eg e2 de d2 | fg f2!8va(! c'd' c'2 | c'c' c'2 d'e' d'2 | b2 z z bb c'2 | %56
 ac' d'2 z2 z c' | ac' d'4 z c' | gc' d'2 d'e' d'2 | b2 z2 z bbc' | ac' d'4 z c' | ac' d'4 z c' | %62
 gc' d'2 d'e' d'2 | b8!8va)! |] %64
V:2
 z8 | z8 | z8 | z8 | A,,E, A,6 | F,,C, F,6 | C,G, C6 | B,,G, B,6 | A,,E,A,C E z z2 | %9
 F,,C,F,A, C z z2 | C,G,CE G z z2 | B,,G,B,D G z z2 | A,,E,A,C E z z2 | F,,C,F,A, C z z2 | %14
 C,G,CE G z z2 | B,,G,B,D G z z2 | A,,E,A,C E z2 z | F,,C,F,A, C z z2 | C,G,CE G z z2 | %19
 B,,G,B,D G z z2 | A,,E,A,C E z z2 | F,,C,F,A, C z z2 | C,G,CE G z z2 | B,,G,B,D G z z2 | %24
 A,,E,A,C E z z2 | F,,C,F,A, C z z2 | C,G,CE G z z2 | B,,G,B,D z z z2 | A,,E,A,C EGEC | %29
 F,,C,F,A, CFCA, | C,G,CE GECG, | B,,G,B,D z z z z | A,,E,A,C E z z2 | F,,C,F,A, C z z2 | %34
 C,G,CE G z z2 | B,,G,B,D G z z2 | A,,E,A,C E z z2 | F,,C,F,A, C z z2 | C,G,CE G z z2 | %39
 B,,G,B,D G z z2 | A,,E,A,C E z z2 | F,,C,F,A, C z z2 | C,G,CE G z z2 | B,,G,B,D G z z2 :| %44
 A,,E,A,C E z z2 | F,,C,F,A, C z z2 | C,G,CE G z z2 | B,,G,B,D G z z2 :| A,,E,A,C E z z2 | %49
 F,,C,F,A, C z z2 | C,G,CE G z z2 | B,,G,B,D G z z2 | A,,E,A,C EGEC | F,,C,F,A, CFCA, | %54
 C,G,CE GECG, | B,,G,B,D z z z z | A,,E,A,C E z z2 | F,,C,F,A, C z z2 | C,G,CE G z z2 | %59
 B,,G,B,D G z z2 | A,,E,A,C E z z2 | F,,C,F,A, C z z2 | C,G,CE G z z2 | B,,G,B,D G z z2 |] %64

